X: 3
T: Crane's Last Twostep
C: Will Wheeler
L: 1/8
M: 4/4
K: Amix
|: "A"A2Ac BAA2 | cBA!>!a AA!>!aA | "G"g2ga gedA | "A"cdec "E"B4 |
   "A"A2Ac BAA2 | cBA!>!a AA!>!aA | "G"g2ga gedA | "E"BcdB "A"A4 :|
|: "A"aece aece | "G"ged!>!g dd!>!gd | "D"fed!>!f dd!>!fd | "A"cdec "E"B4 |
   "A"aece aece | "G"ged!>!g dd!>!gd | "D"fed!>!f dd!>!fd | "E"BcdB "A"A4 :|

